src/assets/images/youtube.svg

<!DOCTYPE svg PUBLIC "-//W3C//DTD SVG 1.1//EN" "http://www.w3.org/Graphics/SVG/1.1/DTD/svg11.dtd">
<!-- Uploaded to: SVG Repo, www.svgrepo.com, Transformed by: SVG Repo Mixer Tools -->
<svg width="800px" height="800px" viewBox="0 -0.5 25 25" fill="none" xmlns="http://www.w3.org/2000/svg">
<g id="SVGRepo_bgCarrier" stroke-width="0"/>
<g id="SVGRepo_tracerCarrier" stroke-linecap="round" stroke-linejoin="round" stroke="#CCCCCC" stroke-width="1"> <path fill-rule="evenodd" clip-rule="evenodd" d="M18.168 19.0028C20.4724 19.0867 22.41 17.29 22.5 14.9858V9.01982C22.41 6.71569 20.4724 4.91893 18.168 5.00282H6.832C4.52763 4.91893 2.58998 6.71569 2.5 9.01982V14.9858C2.58998 17.29 4.52763 19.0867 6.832 19.0028H18.168Z" stroke="#fff" stroke-width="1.5" stroke-linecap="round" stroke-linejoin="round"/> <path fill-rule="evenodd" clip-rule="evenodd" d="M12.008 9.17784L15.169 11.3258C15.3738 11.4454 15.4997 11.6647 15.4997 11.9018C15.4997 12.139 15.3738 12.3583 15.169 12.4778L12.008 14.8278C11.408 15.2348 10.5 14.8878 10.5 14.2518V9.75184C10.5 9.11884 11.409 8.77084 12.008 9.17784Z" stroke="#fff" stroke-width="1.5" stroke-linecap="round" stroke-linejoin="round"/> </g>
<g id="SVGRepo_iconCarrier"> <path fill-rule="evenodd" clip-rule="evenodd" d="M18.168 19.0028C20.4724 19.0867 22.41 17.29 22.5 14.9858V9.01982C22.41 6.71569 20.4724 4.91893 18.168 5.00282H6.832C4.52763 4.91893 2.58998 6.71569 2.5 9.01982V14.9858C2.58998 17.29 4.52763 19.0867 6.832 19.0028H18.168Z" stroke="#fff" stroke-width="1.5" stroke-linecap="round" stroke-linejoin="round"/> <path fill-rule="evenodd" clip-rule="evenodd" d="M12.008 9.17784L15.169 11.3258C15.3738 11.4454 15.4997 11.6647 15.4997 11.9018C15.4997 12.139 15.3738 12.3583 15.169 12.4778L12.008 14.8278C11.408 15.2348 10.5 14.8878 10.5 14.2518V9.75184C10.5 9.11884 11.409 8.77084 12.008 9.17784Z" stroke="#fff" stroke-width="1.5" stroke-linecap="round" stroke-linejoin="round"/> </g>
</svg>

<svg width="800" height="800" viewBox="0 -0.5 25 25" fill="none" xmlns="http://www.w3.org/2000/svg"><g stroke-linecap="round" stroke-linejoin="round" stroke="#fff" clip-rule="evenodd" stroke-width="1.5"><path d="M18.168 19.003a4.183 4.183 0 0 0 4.332-4.017V9.02a4.183 4.183 0 0 0-4.332-4.017H6.832A4.183 4.183 0 0 0 2.5 9.02v5.966a4.183 4.183 0 0 0 4.332 4.017h11.336z"/><path d="m12.008 9.178 3.161 2.148a.667.667 0 0 1 0 1.152l-3.161 2.35c-.6.407-1.508.06-1.508-.576v-4.5c0-.633.909-.981 1.508-.574z"/></g><g clip-rule="evenodd" stroke="#fff" stroke-width="1.5" stroke-linecap="round" stroke-linejoin="round"><path d="M18.168 19.003a4.183 4.183 0 0 0 4.332-4.017V9.02a4.183 4.183 0 0 0-4.332-4.017H6.832A4.183 4.183 0 0 0 2.5 9.02v5.966a4.183 4.183 0 0 0 4.332 4.017h11.336z"/><path d="m12.008 9.178 3.161 2.148a.667.667 0 0 1 0 1.152l-3.161 2.35c-.6.407-1.508.06-1.508-.576v-4.5c0-.633.909-.981 1.508-.574z"/></g></svg>
